X:1
T:Apple trees - Pote
C:Taken down by Thos. Pote, Washfield, by S.B.G.
%%VWML:SBG-1-1-282-0
F:http://www.vwml.org/record/SBG/1/1/282
Z:Original Sibleius Transcription by Martin and Shan Graebe
M:6/8
L:1/8
K:G
A | B2 AF2D | D4zF | E2 DC2D | E3G2B | A2 FD2D |D4zF | E2 DG2G | 
D3D2E | F2 FA2A |A3z2G | B2AG2F | E3A2B | A2B^c2d |A4 B|A2 F E2 D|
E3  D2||"Chorus" D/D/|D2 D D4 D2 ^C | B, ^CD2 B,| A,3D2F | G3 B2G | F3 A3|E2E E3 | A2D4 ||

